svg/food/fish_line.svg

<?xml version="1.0" encoding="UTF-8"?>
<svg width="24px" height="24px" viewBox="0 0 24 24" version="1.1" xmlns="http://www.w3.org/2000/svg" xmlns:xlink="http://www.w3.org/1999/xlink">
    <title>fish_line</title>
    <g id="页面-1" stroke="none" stroke-width="1" fill="none" fill-rule="evenodd">
        <g id="Food" transform="translate(-192.000000, 0.000000)">
            <g id="fish_line" transform="translate(192.000000, 0.000000)">
                 <path d="M24,0 L24,24 L0,24 L0,0 L24,0 Z M12.5934901,23.257841 L12.5819402,23.2595131 L12.5108777,23.2950439 L12.4918791,23.2987469 L12.4918791,23.2987469 L12.4767152,23.2950439 L12.4056548,23.2595131 C12.3958229,23.2563662 12.3870493,23.2590235 12.3821421,23.2649074 L12.3780323,23.275831 L12.360941,23.7031097 L12.3658947,23.7234994 L12.3769048,23.7357139 L12.4804777,23.8096931 L12.4953491,23.8136134 L12.4953491,23.8136134 L12.5071152,23.8096931 L12.6106902,23.7357139 L12.6232938,23.7196733 L12.6232938,23.7196733 L12.6266527,23.7031097 L12.609561,23.275831 C12.6075724,23.2657013 12.6010112,23.2592993 12.5934901,23.257841 L12.5934901,23.257841 Z M12.8583906,23.1452862 L12.8445485,23.1473072 L12.6598443,23.2396597 L12.6498822,23.2499052 L12.6498822,23.2499052 L12.6471943,23.2611114 L12.6650943,23.6906389 L12.6699349,23.7034178 L12.6699349,23.7034178 L12.678386,23.7104931 L12.8793402,23.8032389 C12.8914285,23.8068999 12.9022333,23.8029875 12.9078286,23.7952264 L12.9118235,23.7811639 L12.8776777,23.1665331 C12.8752882,23.1545897 12.8674102,23.1470016 12.8583906,23.1452862 L12.8583906,23.1452862 Z M12.1430473,23.1473072 C12.1332178,23.1423925 12.1221763,23.1452606 12.1156365,23.1525954 L12.1099173,23.1665331 L12.0757714,23.7811639 C12.0751323,23.7926639 12.0828099,23.8018602 12.0926481,23.8045676 L12.108256,23.8032389 L12.3092106,23.7104931 L12.3186497,23.7024347 L12.3186497,23.7024347 L12.3225043,23.6906389 L12.340401,23.2611114 L12.337245,23.2485176 L12.337245,23.2485176 L12.3277531,23.2396597 L12.1430473,23.1473072 Z" id="MingCute" fill-rule="nonzero"></path>
                <path d="M20.4852,3.51477 C20.1547,3.18424 19.5501,2.85819 18.8753,2.60957 C18.1599,2.34599 17.2419,2.12349 16.2017,2.07396 C14.4115,1.98871 12.2741,2.41913 10.2328,3.99327 C10.201,4.0053 10.1696,4.01906 10.1385,4.03459 L7.31007,5.44881 C6.81609,5.69579 6.61587,6.29647 6.86286,6.79045 C6.99267,7.05007 7.22018,7.22855 7.47855,7.30361 C6.84205,8.56331 6.43911,9.99046 6.30066,11.4441 C6.22622,12.2256 6.17228,13.3739 6.11629,14.5656 C6.09267,15.0684 6.06867,15.5794 6.04262,16.0734 C5.42558,16.1223 4.85514,16.1816 4.38932,16.2572 C3.89813,16.3368 3.34737,16.4341 2.95106,16.7604 C2.78223,16.8995 2.51465,17.1966 2.51465,17.6569 C2.51465,18.5803 3.34721,19.434 3.95659,20.0434 C4.56597,20.6528 5.41966,21.4853 6.34308,21.4853 C6.80334,21.4853 7.10052,21.2178 7.23955,21.0489 C7.5659,20.6526 7.66318,20.1018 7.74283,19.6107 C7.81836,19.1448 7.87765,18.5744 7.9266,17.9574 C8.42071,17.9313 8.93138,17.9073 9.43433,17.8837 C10.626,17.8277 11.7744,17.7738 12.5559,17.6993 C14.0095,17.5609 15.4367,17.1579 16.6964,16.5214 C16.7715,16.7798 16.95,17.0073 17.2096,17.1372 C17.7036,17.3842 18.3043,17.1839 18.5512,16.69 L19.9655,13.8615 C19.981,13.8304 19.9948,13.7988 20.0069,13.767 C21.5809,11.7257 22.0113,9.58842 21.926,7.79823 C21.8765,6.75811 21.654,5.8401 21.3904,5.12466 C21.1418,4.44984 20.8157,3.8453 20.4852,3.51477 Z M9.4341,15.8812 C8.98339,15.9022 8.51845,15.9238 8.0522,15.9478 C8.07617,15.4815 8.0978,15.0166 8.11877,14.5659 C8.17167,13.4288 8.22036,12.3822 8.29165,11.6337 C8.49245,9.52553 9.34588,7.58304 10.5857,6.3432 C12.4851,4.44382 14.4981,3.9951 16.1066,4.0717 C16.9227,4.11056 17.6398,4.2858 18.1839,4.48626 C18.4853,4.59731 18.8148,4.72487 19.0691,4.92768 L19.0709,4.92909 L19.0723,4.93087 C19.2751,5.18523 19.4027,5.51463 19.5137,5.81607 C19.7142,6.36016 19.8894,7.07733 19.9283,7.89336 C20.0049,9.50188 19.5562,11.5149 17.6568,13.4143 C16.4169,14.6541 14.4745,15.5075 12.3662,15.7083 C11.6178,15.7796 10.5712,15.8283 9.4341,15.8812 Z M4.9665,18.1933 C5.24225,18.1557 5.55951,18.1221 5.90848,18.0915 C5.87788,18.4405 5.84423,18.7577 5.80672,19.0335 C5.66464,18.912 5.51674,18.7751 5.3708,18.6292 C5.22487,18.4832 5.08799,18.3353 4.9665,18.1933 Z M14.8284,9.17172 C15.4142,9.7575 16.3639,9.7575 16.9497,9.17172 C17.5355,8.58593 17.5355,7.63618 16.9497,7.0504 C16.3639,6.46461 15.4142,6.46461 14.8284,7.0504 C14.2426,7.63618 14.2426,8.58593 14.8284,9.17172 Z" id="形状" fill="#09244B"></path>
            </g>
        </g>
    </g>
</svg>

<svg xmlns="http://www.w3.org/2000/svg" width="24" height="24"><g fill="none" fill-rule="evenodd"><path d="M24 0v24H0V0h24ZM12.593 23.258l-.011.002-.071.035-.02.004-.014-.004-.071-.035c-.01-.004-.019-.001-.024.005l-.004.01-.017.428.005.02.01.013.104.074.015.004.012-.004.104-.074.012-.016.004-.017-.017-.427c-.002-.01-.009-.017-.017-.018Zm.265-.113-.013.002-.185.093-.01.01-.003.011.018.43.005.012.008.007.201.093c.012.004.023 0 .029-.008l.004-.014-.034-.614c-.003-.012-.01-.02-.02-.022Zm-.715.002a.023.023 0 0 0-.027.006l-.006.014-.034.614c0 .012.007.02.017.024l.015-.002.201-.093.01-.008.004-.011.017-.43-.003-.012-.01-.01-.184-.092Z"/><path fill="#09244B" d="M20.485 3.515c-.33-.33-.935-.657-1.61-.905a9.055 9.055 0 0 0-2.673-.536c-1.79-.085-3.928.345-5.97 1.92a1.014 1.014 0 0 0-.093.04L7.31 5.45a1 1 0 0 0 .169 1.855 11.707 11.707 0 0 0-1.178 4.14c-.075.782-.129 1.93-.185 3.122-.023.502-.047 1.013-.073 1.507-.617.05-1.188.109-1.654.184-.49.08-1.042.177-1.438.503-.169.14-.436.437-.436.897 0 .923.832 1.777 1.442 2.386.609.61 1.463 1.442 2.386 1.442.46 0 .758-.267.897-.436.326-.396.423-.947.503-1.438a21.31 21.31 0 0 0 .184-1.654c.494-.026 1.004-.05 1.507-.073 1.192-.056 2.34-.11 3.122-.185a11.707 11.707 0 0 0 4.14-1.178 1 1 0 0 0 1.855.169l1.414-2.829c.016-.03.03-.062.042-.094 1.574-2.041 2.004-4.179 1.919-5.969a9.054 9.054 0 0 0-.536-2.673c-.248-.675-.574-1.28-.905-1.61ZM9.435 15.88c-.452.021-.917.043-1.383.067.024-.466.046-.931.067-1.382.053-1.137.101-2.184.173-2.932.2-2.108 1.054-4.051 2.294-5.29 1.9-1.9 3.912-2.349 5.52-2.272a7.056 7.056 0 0 1 2.078.414c.301.111.63.239.885.442l.002.001.001.002c.203.254.33.584.442.885.2.544.375 1.261.414 2.077.077 1.609-.372 3.622-2.271 5.521-1.24 1.24-3.182 2.094-5.29 2.294-.75.072-1.796.12-2.933.173Zm-4.469 2.312c.276-.037.594-.07.942-.102-.03.35-.064.667-.101.942a7.717 7.717 0 0 1-.84-.84Zm9.862-9.021A1.5 1.5 0 1 0 16.95 7.05a1.5 1.5 0 0 0-2.122 2.122Z"/></g></svg>
